X:1
T:Op 299 / 19
T:Op 299 / 19
T:Czerny
C:Czerny
%%score { 1 | 2 }
L:1/8
Q:1/4=400
M:4/4
K:F
V:1 treble nm="Piano" snm="Pno."
V:2 bass 
V:1
 A/c/a/f/ c'/a/f/c/ G/c/g/e/ c'/g/e/c/ | F/A/f/d/ a/f/d/A/ E/A/e/c/ a/e/c/A/ | %2
 D/F/d/B/ f/d/B/F/ C/F/c/A/ f/c/A/F/ | C/E/c/G/ e/c/G/E/ C/F/c/A/ f/c/A/F/ | %4
 E/G/e/c/ g/e/c/G/ F/A/f/c/ a/f/c/A/ | ^G/=B/^g/e/ =b/g/e/B/ A/c/a/e/ c'/a/e/c/ | %6
 =B/d/=b/g/ d'/b/g/d/ g/d/B/G/ b/g/d/B/ | c'/g/e/c/ b/g/e/c/ b/g/e/c/ B/c/G/c/ | %8
 A/c/a/f/ c'/a/f/c/ G/c/g/e/ c'/g/e/c/ | F/A/f/d/ a/f/d/A/ E/A/e/^c/ a/e/c/A/ | %10
 D/F/d/B/ f/d/B/F/ C/F/c/A/ f/c/A/F/ | E/G/e/c/ g/e/c/G/ F/A/f/c/ a/f/c/A/ |] %12
V:2
 F,2 [A,C]2 E,2 [G,C]2 | D,2 [F,A,]2 C,2 [E,A,]2 | B,,2 [D,F,]2 A,,2 [C,F,]2 | %3
 G,,2 [B,,C,E,]2 F,,2 [A,,C,F,]2 | C,,2 [C,E,G,]2 F,,2 [C,F,A,]2 | %5
 E,,2 [E,_A,=B,]2 A,,2 [E,=A,C]2 | G,,2 [G,=B,DF]4 [G,B,DF]2 | [CE]2 [C,,C,]2 z4 | %8
 F,2 [A,C]2 C,2 [E,G,C]2 | D,2 [F,A,]2 A,,2 [^C,E,A,]2 | B,,2 [D,F,]2 F,,2 [A,,C,F,]2 | %11
 C,,2 [E,,G,,C,]2 _E,,2 [F,,_E,]2 |] %12

